X:1
T:Where most my thoughts - Wilbye
T:#
%%score 1 2 { 3 | 4 } 5
L:1/8
Q:1/4=160
M:4/4
K:C
V:1 treble nm="Soprano I"
V:2 treble nm="Soprano II"
V:3 treble nm="Alto I" snm="A"
V:4 treble 
V:5 treble-8 nm="Tenor" snm="T"
V:1
"^Where most my thoughts""^John Wilbye\n (1574-1638)""^1st part of the 2-part madrigal, the 2nd being \"Despiteful thus unto myself, I languish\"" z4!p! A4- | %1
w: Where|
 A4 G4- | G4 F4 | E8 | D8 | A8- | A4 A4 | A4 G4 |[M:4/4] A4 E4 | z8 | z8 |!p! A8 | F6 G2 | A8 | %14
w: * most|* my|thoughts,|there|least|* mine|eye is|strik- ing,|||where|most my|thoughts,|
 D8 | d6 d2 | c8- | c4 A4 | G4 G4 |"^cresc." A4 G4- | G4 F4 | E8 | D4 F4 | E8 | z4!p! e4- | %25
w: there|least mine|eye|* is|strik- ing,|there least|* mine|eye|is strik-|ing;|Where|
 e4 d4- | d4 c4 | B4 B4 | A8 | z4 E4 | C4 F4 | E4 E4 | z8 | z4!mf! B4 | c6 B2 | A4 A4 | %36
w: * least|* I|come, there|most|my|heart a-|bid- eth,||where|least I|come, there|
 G4 (E2 ^F2) | ^G4 A4- | A4 ^G4 | A4 z4 |!p! E8 | A8- | A4 G4 | F8- | F4 E4 | D8- | D4 E2 F2 | %47
w: most my *|heart a\-|* bid-|eth;|Where|most|* I|love,|* I|ne\-|* ver *|
 G8- | G8 | ^G4 (A4- | A4 ^G4) | A8 | z4"^cresc." c4 | B4 c4 | c4 B4 | c2 d2 e4- | e2 e2 (d4- | %57
w: show||my lik\-||ing;|From|what my|mind doth|hold, my bo\-|* dy slid\-|
 d4 c4 | B8 | A8- | A8) | G4!mf! B4 | A4 A4 | G8 | z8 | z4 G4 | d6 c2 | B2 c2 d4 | c8 | z4 d4 | %70
w: ||||eth: I|care- less|seem,||where|most my|care de- pend-|eth,|my|
 c4 c4 | B8 | A8 | z8 | z8 | z4!p! B4 | c4 d4 | B8 | z4 A4 | ^G6 A2 | B4 (c2 d2) | e4 B4 | z4 A4 | %83
w: care de-|pend-|eth;|||A|coy re-|gard,|where|most my|soul at\- *|tend- eth,|where|
 ^G6 A2 | B4 (c2 d2) | e4 B4 | z4"^cresc." A4 | ^F6 G2 | A4 (B2 c2) | d4 A4 | z4 G4 | ^F6 G2 | %92
w: most my|soul at\- *|tend- eth,|where|most my|soul at\- *|tend- eth,|where|most my|
 A4 (B2 c2) | d4 A4 | z4!p!"^dim." G4 | E6 F2 | G6 (AB) |[Q:1/4=155] (c8- | %98
w: soul at\- *|tend- eth,|where|most my|soul at *|tend\-|
[Q:1/4=149] c4[Q:1/4=146] B4 |[Q:1/4=140] A8- |[Q:1/4=135] A4[Q:1/4=132] ^G2[Q:1/4=130] ^F2) | %101
w: |||
[Q:1/4=130] ^G16 |] %102
w: eth.|
V:2
 z8 | z8 | z8 | z8 | z8 | z8 | z8 | z8 |[M:4/4] z4"^cresc."!p! A4- | A4 G4- | G4 F4 | E8 |!p! D8 | %13
w: ||||||||Where|* most|* my|thoughts,|there|
 E4 E4 | F4 A4 | (A4 G4) | A8 | G4 F4- | F4 E4 |"^cresc." F4 _B4 | A8 | A8 | z8 | z8 |!p! B8 | %25
w: least mine|eye is|strik\- *|ing,|there least|* mine|eye is|strik-|ing;|||Where|
 c4 (B2 A2) | ^G4 A4 | A4 ^G4 | A6 (d2- | d2 c2) B4 | A8 | z4 E4 | E4 F4 | E4 E4 | E4!mf! E4- | %35
w: least I *|come, there|most my|heart a\-|* * bid-|eth,|my|heart a-|bid- eth,|my heart|
 E2 (DC) D4 | E4 z4 | z8 | z8 |!p! E8 | c8- | c4 B4 | A8- | A4 (B2 c2) | d8- | d4 c4 | B4 c4 | %47
w: * a\- * bid-|eth;|||Where|most|* I|love,|* I *|ne\-|* ver|show my|
 (c4 B4) | c8 | z4 e4 | e6 d2 | c6 B2 | A2"^cresc." G2 A2 A2 | G8 | G8 | z4 c4- | c4 B2 A2 | %57
w: lik\- *|ing;|From|what my|mind doth|hold, my bo- dy|slid-|eth,|my|* bo- dy|
 (^G4 A4- | A4 ^G4) | A4 z4 | z8 | z4!mf! d4 | d6 c2 | B4 B4 | A4 A4 | G8 | z8 | z4 G4 | G4 G4 | %69
w: slid\- *||eth:||I|care- less|seem, I|care- less|seem,||I|care- less|
 G8 | z4 e4 | e6 d2 | c4 c4 | B8 | A8 | z8 | z8 | z4!p! B4 | c4 d4 | B8- | B4 A4 | ^G6 A2 | %82
w: seem,|where|most my|care de-|pend-|eth;|||A|coy re-|gard,|* where|most my|
 B4 (c2 d2) | e4 B4 | z4 A4 | ^G6"^cresc." A2 | B4 ^c4 | d4 A4 | z4 G4 | ^F6!p! G2 | A4 (B2 c2) | %91
w: soul at\- *|tend- eth,|where|most my|soul at-|tend- eth,|where|most my|soul at\- *|
 d4 A4 | z4 G4 | ^F6 G2 | A4 B4 | c4 G4 | z4"^dim." G4 | A6 A2 | A4 B4 | c8 | B8- | B16 |] %102
w: tend- eth,|where|most my|soul at-|tend- eth,|where|most my|soul at-|tend-|eth.||
V:3
 z8 | z8 | z8 | z8 | z8 | z8 | z8 | z8 |[M:4/4]"^cresc."!p! ^C8 | D4 B,4 | ^C4!p! D4 | D4 ^C4 | %12
w: ||||||||Where|most my|thoughts, there|least my|
 D4 F4 | E8 | D8 | z8 | z8 | z8 | z4"^cresc." C4 | F,4 G,4 | A,8 | A,8 | A,6 B,A, | ^G,4 A,4- | %24
w: eye us|strik-|ing,||||where|most my|thoughts,|there|least mine *|eye is|
 A,4 ^G,4 | A,4 z4 | z8 | z4!p! E4 | C4 D4 | E8 | A,4 A4- | A4 ^G4 | A2 A,4 (D2- | D2 C2 B,4) | %34
w: * strik-|ing;||Where|least I|come,|there most|* my|heart a- bid\-||
 A,4 z4 | z8 | z4!mf! B,4 | E8- | E4 D4 | C4!p! B,4 | A,8- | A,4 (B,2 C2) | D4 E4 | (F4 E4) | D8- | %45
w: eth;||Where|most|* I|love, I|ne\-|* ver *|show my|lik\- *|ing,|
 D4 (E2 F2) | G4 E4 | D4 D4 | C6 C2 | B,4 A,4 | B,4 E4 | z8 | z4"^cresc." (F2 E2) | D4 C4 | D4 G4 | %55
w: * where *|most I|love, I|ne- ver|show my|lik- ing;||From *|what my|mind doth|
 F4 E4 | E2 G2 (D2 C2) | B,4 A,4 | B,8 | ^C4 (D4- | D4 ^C4) | D8- | D4!mf! A,4 | B,6 C2 | D8 | %65
w: hold, my|bo- dy slid\- *|eth, my|bo-|dy slid\-||eth:|* I|care- less|seem,|
 G,4 G4- | G4 ^F4 | G6 =F2 | E8- | E4 D4 | z8 | z4 B,4 | C6 D2 | E8 | A,4 A4- | A4 ^G4 | A4 F4 | %77
w: where most|* my|care de-|pend\-|* eth,||I|care- less|seem,|where most|* my|care de-|
 E4 E4 | z4!p! A,4 | E6 ^F2 | ^G4 A4 | E8 | E4 A,4 | E6 ^F2 | ^G4 A4 | E8 | E4"^cresc." A,4 | %87
w: pend- eth;|where|most my|soul at-|tend-|eht, where|most my|soul at-|tend-|eth, where|
 D6 E2 | ^F4 G4 | D8 | D4!p! G,4 | D6 E2 | ^F4 G4 | D8 | D4"^dim." G,4 | C6 D2 | E4 D4 | C4 A,4 | %98
w: most my|soul at-|tend-|eth, where|most my|soul at-|tend-|eth, where|most my|soul, my|soul at-|
 E8- | E8 | E8- | E16 |] %102
w: tend\-||eth.||
V:4
!p! ^C8 | D4 B,4 | ^C4 D4 | D4 ^C4 | D4 F4 | E8 | D4 ^C4 | D8 |[M:4/4] E4"^cresc.""^cresc." E4 | %9
w: Where|most my|thoughts, there|least my|eye is|strik-|ing, is|strik-|ing, where|
 F4 (E4- | E4 D4) | E8 | z4!p! A,4 | A,8- | A,4 A,4 | F4 (E2 D2) | (E8- | E4 C4) | C6"^cresc." C2 | %19
w: most my||thoughts,|there|least|* mine|eye is *|strik\-||ing, there|
 C2 F2 E2 D2 | ^C4 D4- | D4 ^C4 | D8- | D4 =C4 | B,6!p! E2 | C4 D4 | E8- | E8 | A,4 A4- | A4 ^G4 | %30
w: least mine eye is|strik\- *||||King; Where|least I|come,||there most|* my|
 A2 A,4 (D2- | D2 C2 B,4) | A,8 | z4!mf! E4 | C3 B, A,2 B,2 | C4 A,4 | E6 (DC) | (B,4 A,4) | %38
w: heart a- bid\-||eth;|where|least I come, there|most my|heart a\- *|bid\- *|
 B,4!p! B,4 | C8- | C4 B,4 | A,8- | A,4 B,2 C2 | D8- | D4 C4 | B,4 A,4 | G,4 C2 C2 | D8 | E8- | %49
w: eth; Where|most|* I|love,|* I *|ne\-|* ver|show my|lik- ing, my|lik-|ing;|
 E8 | E8 | z4"^cresc." (A2 G2) | F2 E2 F4- | F4 E4 | D4 D4 | C6 D2 | E2 E2 z2 A,2 | E8- | E4 E4 | %59
w: ||From *|what my mind|* doth|hold, my|bo- dy|slid- eth, my|bo\-|* dy|
 (E4 ^F4 | E8) | D4!mf! G4 | G4 ^F4 | G8 | z4 z2 D2 | D2 D4 C2- | C2 B,2 A,4 | G,4 B,4 | %68
w: slid\- *||eth: I|care- less|seem,|where|most my care|* de- pend-|eth, I|
 C2 D2 E2 F2 | G6 F2 | E4 E4 | E8 | E8 | z4 z2 E2 | E2 E4 D2- | D2 C2 (B,4 | A,8) | ^G,4!p! ^G4 | %78
w: care- less seem, where|most my|care de-|pend-|eth,|where|most my care|* de- pend\-||eth; A|
 A4 F4 | E8 | z8 | z8 | z4 E4 | E4 E4 | E4 C4 | B,8 | B,4 z4 | z8 | z8 | z8 | z4!p! D4 | D4 D4 | %92
w: coy re-|gard,|||where|most my|soul at-|tend-|eth,||||where|most my|
 D4 B,4 | A,8 | A,4"^dim." D4 | C4 C4 | C4 D4 | E8 | E6 D2 | C4 A,4 | B,8 | B,16 |] %102
w: soul at-|tend-|eth, where|most my|soul at-|tend-|eth, my|soul at-|tend-|eth.|
V:5
!p! A8 | F4 G4 | A8- | A8 | D4 d4- | d4 ^c4 | d4 A4 | _B8 |[M:4/4][K:treble-8] A8 | z8 | z8 | z8 | %12
w: Where|most my|thoughts,||there least|* mine|eye is|strik-|ing,||||
 z8 | z4!p! A4 | F6 E2 | D4 D4 | A6 (GF) | E4 F4 | G4 G4 | z8 | z8 | z4"^cresc." A4 | D4 D4 | E8- | %24
w: |where|most my|thoughts, there|least mine *|eye is|strik- ing,|||mine|eye is|strik\-|
 E8 | A4 z4 | z8 | z8 | z8 | z8 | z8 | z4!p! E4 | C4 D4 | E8 | z4 z2!mf! E2 | A6 A2 | B8- | B4 c4 | %38
w: |ing;||||||Where|least I|come,|there|most my|heart|* a-|
 B8 | A8 | z8 | z8 | z8 | z8 | z8 | z8 | z8 | z4!p! G4 | G6 A2 | B4 c4 | B4 B4 | A4 (F2 G2) | %52
w: bid-|eth;||||||||From|what my|mind doth|hold, my|bo- dy *|
 (A2 B2 c4) | G8 | z4"^cresc." G4 | c6 (BA) | G4 (FG A2) | E2 B2 c2 d2 | (e4 E4- | E4 D4) | E8 | %61
w: slid\- * *|eth,|from|what my *|mind doth * *|hold, my bo- dy|slid\- *||eth:|
 z4!mf! D4 | d8- | d4 G4 | A4 A4 | B6 c2 | d8- | d4 G4 | (C6 D2 | E2 F2 G4) | E4 A4 | A4 ^G4 | A8 | %73
w: I|care\-|* less|seem, where|most my|care|* de-|pend\- *||eth, where|most my|care|
 z4 B4 | (c6 d2) | e4 E4 | A4 D4 | E8 | z8 | z8 | z4!p! e4 | e4 e4 | e4 c4 | B8 | B4 z4 | z8 | %86
w: de-|pend\- *|eth; A|coy re-|gard,|||where|most my|soul at-|tend-|eth,||
 z4"^cresc." e4 | d4 d4 | d4 B4 | A8 | A4 z4 | z8 | z8 | z8 | z8 | z4"^dim." G4 | G4 G4 | E4 E4 | %98
w: where|most my|soul at-|tend-|eth,|||||where|most my|soul, my|
 E8- | E4 E4 | E8 | E16 |] %102
w: soul|* at-|tend-|eth.|

